_includes/icons/color-dll.svg

<svg fill="#666" height="50" viewBox="0 0 48 48" width="50" xmlns="http://www.w3.org/2000/svg"><path d="m40 45h-32v-42h22l10 10z" fill="#4db6ac"/><path d="m38.5 14h-9.5v-9.5z" fill="#e0f2f1"/><g fill="#00695c"><path d="m14 33v-9.953125h2.632813c1.160156 0 2.085937.367188 2.777343 1.105469.691407.738281 1.042969 1.75 1.058594 3.035156v1.613281c0 1.308594-.347656 2.335938-1.039062 3.082032-.6875.746093-1.640625 1.117187-2.851563 1.117187zm2.011719-8.277344v6.609375h.601562c.667969 0 1.140625-.175781 1.414063-.53125.273437-.351562.417969-.960937.429687-1.828125v-1.726562c0-.929688-.128906-1.578125-.390625-1.945313-.257812-.367187-.699218-.558593-1.324218-.578125z"/><path d="m23.917969 31.332031h3.527344v1.667969h-5.535157v-9.953125h2.007813z"/><path d="m30.617188 31.332031h3.527343v1.667969h-5.535156v-9.953125h2.007813z"/></g></svg>

<svg xmlns="http://www.w3.org/2000/svg" viewBox="0 0 48 48" width="50" height="50" fill="#666"><path d="M 40 45 L 8 45 L 8 3 L 30 3 L 40 13 Z" fill="#4db6ac"/><path d="M 38.5 14 L 29 14 L 29 4.5 Z" fill="#e0f2f1"/><path d="M 14 33 L 14 23.046875 L 16.632813 23.046875 C 17.792969 23.046875 18.71875 23.414063 19.410156 24.152344 C 20.101563 24.890625 20.453125 25.902344 20.46875 27.1875 L 20.46875 28.800781 C 20.46875 30.109375 20.121094 31.136719 19.429688 31.882813 C 18.742188 32.628906 17.789063 33 16.578125 33 Z M 16.011719 24.722656 L 16.011719 31.332031 L 16.613281 31.332031 C 17.28125 31.332031 17.753906 31.15625 18.027344 30.800781 C 18.300781 30.449219 18.445313 29.839844 18.457031 28.972656 L 18.457031 27.246094 C 18.457031 26.316406 18.328125 25.667969 18.066406 25.300781 C 17.808594 24.933594 17.367188 24.742188 16.742188 24.722656 Z" fill="#00695c"/><path d="M 23.917969 31.332031 L 27.445313 31.332031 L 27.445313 33 L 21.910156 33 L 21.910156 23.046875 L 23.917969 23.046875 Z" fill="#00695c"/><path d="M 30.617188 31.332031 L 34.144531 31.332031 L 34.144531 33 L 28.609375 33 L 28.609375 23.046875 L 30.617188 23.046875 Z" fill="#00695c"/></svg>
